X:978
T:Green Grow the Rashes o'
C:Joe Buchanan's Scottish Tome - Page 566.2
I:566 2
Z:Carl Allison
R:Waltz
L:1/4
M:3/4
K:G
B | "G"G2 b | "D7"B2 A | "G"B2 G | "Am"A2 A | "Am"e2 d | "Am"e2 A | "Am"A2 B |
"Am"c2 B | "Am"c2 e | "G"d2 B | "Em"G2 B | "Am"A2 c | "B7"B2 A | "Em"G E2 | "Em"E3 |
"G"d3 | "G"g2 f | "G"g2 d | "G"d3 | "C"e3 | "Am"a2 ^g | "Am"a2 e | "Am"e2 f |
"G"g2 a | "G"g2 "A7"e | "G"d2 B | "Em"G2 B | "Am"A2 c | "B7"B2 A | "Em"G E2 | "Em"E3 |]
